-----BEGIN PGP MESSAGE-----

hQEMAzaCWWyksYR9AQf/Z991bjKpWa4PboQjxAQJga8G3qmdm3T+jJoyslf2/eRh
pX+p34W6FjG+kCRr0KXyJ3gZfzlWBwI+OUvtMuSh73+mb+kM053XWaDWSqMNoagM
AuJZnB5y0Kgq1AWgKil9P4Ej42jmwFwrNQAZVZ3zkokHDWdxQHAOj3XpMhUDP8DY
JGMPjj+ojzTyEGuWdOoRGoFTX9jVl6S/Bci6LqEA+8uhm3NhdVVBBPwFSh1A5TDT
n0wIa0W1WNFck5PM/pYAAV6sdz3ppspxX3xTcrHlcL/sC6Gs60kt+f3FM7v2GXTl
kH2sO6N2fLlGfx/Li2c7DOlb6YVpOQjgEpJ2QdSFM9LAfQE6Frrqfz5wLr/ZCU/o
LUX2Skyo+5bMPCwe294ViM9tnEEegJqvl7WtF8DPjAfkI0fq1ZyA0UPVsphmqkrv
ladanSYKMW635NRJGva0td8uTFQpCrWGdEccsontEnHnI7o882TbADY2+/b8aiYY
f/xTMcqFfLFuiKhGzwCKB+cFcFCS0/pS/32vZhBeEt43WAaVJlcrk32B+k2nix6V
qh9tMFNbL60lxKDi6kR86077yc64Yx4wupQPicOJm4PpJDYUmF/wndVv41+nYerm
oka0MxN03K311rdFDUxfi8tEXwrge1t49Ix93RJorCjuJf+RiLMU7WcgP/c+OD0c
FU8HyvxPuoZOiHmdaDc7FNutub5zsUwano1HgEFNgIJcuO5jr1kYYEsB+b4sPQsD
TYViUTCR76iPZ9geGTJK
=AhSv
-----END PGP MESSAGE-----
